X: 13333
T: Flat Roof House, The
R: reel
M: 4/4
K: Dminor
de|:fed^c defd|AFDF ABAG|AFDF Adef|gece gbag|
afcf (3aaa gf|gece gbag|fed^c dAFG|1 AGFE D2de:|2 AGFE D2 G,2||
A,DDE FEDC|DEFG Adde|fd (3ddd gdBG|
[1 AFDA, C2DC|A,DDE FEDC|DEFG Adde|fdge afbg|agfe d2G,2:|
[2 AFDA, CDEC|FAAB cBAG|Adde fefg|afge fded|AGFE D4||

